web_console_v2/client/src/assets/icons/python.svg

<?xml version="1.0" encoding="UTF-8"?>
<svg width="587px" height="594px" viewBox="0 0 587 594" version="1.1" xmlns="http://www.w3.org/2000/svg" xmlns:xlink="http://www.w3.org/1999/xlink">
    <title>python</title>
    <defs>
        <linearGradient x1="-2.19067419%" y1="3.84128492%" x2="70.8927373%" y2="67.953202%" id="linearGradient-1">
            <stop stop-color="#5A9FD4" offset="0%"></stop>
            <stop stop-color="#306998" offset="100%"></stop>
        </linearGradient>
        <linearGradient x1="64.6464724%" y1="71.7229197%" x2="38.8913626%" y2="34.3596472%" id="linearGradient-2">
            <stop stop-color="#FFD43B" offset="0%"></stop>
            <stop stop-color="#FFE873" offset="100%"></stop>
        </linearGradient>
    </defs>
    <g id="1" stroke="none" stroke-width="1" fill="none" fill-rule="evenodd">
        <g id="python-3" transform="translate(0.326819, 0.796091)" fill-rule="nonzero">
            <path d="M289.280345,0.89170621 C265.143917,1.00227885 242.09742,3.0610361 221.820504,6.65201421 C162.079686,17.2090686 151.233037,39.2972698 151.233037,80.0406549 L151.233037,133.847408 L292.407971,133.847408 L292.407971,151.781237 L98.2476806,151.781237 C57.2199658,151.781237 21.2891232,176.444201 10.0528369,223.358592 C-2.91048882,277.133753 -3.48441347,310.689916 10.0528369,366.839756 C20.0886203,408.636214 44.0565563,438.417112 85.0842711,438.417112 L133.62566,438.417112 L133.62566,373.916405 C133.62566,327.317935 173.942551,286.216505 221.820504,286.216505 L362.832212,286.216505 C402.085499,286.216505 433.419679,253.897702 433.419679,214.475924 L433.419679,80.0353896 C433.419679,41.7772562 401.142999,13.0336351 362.832212,6.64674885 C338.574681,2.61348017 313.416773,0.775868206 289.280345,0.89170621 Z M212.93257,44.162466 C227.517627,44.162466 239.422615,56.2675373 239.422615,71.1474555 C239.422615,85.9747199 227.512362,97.9692187 212.93257,97.9692187 C198.300124,97.9692187 186.442524,85.9799853 186.442524,71.1474555 C186.442524,56.2675373 198.300124,44.162466 212.93257,44.162466 Z" id="形状" fill="url(#linearGradient-1)"></path>
            <path d="M451.027056,151.775971 L451.027056,214.465393 C451.027056,263.069966 409.820318,303.976578 362.832212,303.976578 L221.820504,303.976578 C183.193795,303.976578 151.233037,337.032532 151.233037,375.717159 L151.233037,510.147163 C151.233037,548.410561 184.499605,570.914726 221.820504,581.887745 C266.507646,595.030093 309.362442,597.404772 362.832212,581.887745 C398.373417,571.599224 433.419679,550.885282 433.419679,510.147163 L433.419679,456.345675 L292.407971,456.345675 L292.407971,438.411846 L504.007146,438.411846 C545.040126,438.411846 560.325477,409.789329 574.594613,366.834491 C589.337632,322.615965 588.711054,280.082357 574.594613,223.353327 C564.453523,182.5099 545.087515,151.775971 504.007146,151.775971 L451.027056,151.775971 Z M371.714881,492.213334 C386.347327,492.213334 398.204926,504.202567 398.204926,519.035097 C398.204926,533.915015 386.347327,546.020086 371.714881,546.020086 C357.129823,546.020086 345.224835,533.915015 345.224835,519.035097 C345.224835,504.207832 357.135088,492.213334 371.714881,492.213334 Z" id="形状" fill="url(#linearGradient-2)"></path>
        </g>
    </g>
</svg>

<svg xmlns="http://www.w3.org/2000/svg" width="587" height="594"><defs><linearGradient id="a" x1="-2.191%" x2="70.893%" y1="3.841%" y2="67.953%"><stop offset="0%" stop-color="#5A9FD4"/><stop offset="100%" stop-color="#306998"/></linearGradient><linearGradient id="b" x1="64.646%" x2="38.891%" y1="71.723%" y2="34.36%"><stop offset="0%" stop-color="#FFD43B"/><stop offset="100%" stop-color="#FFE873"/></linearGradient></defs><g fill="none"><path fill="url(#a)" d="M289.28.892c-24.136.11-47.183 2.169-67.46 5.76-59.74 10.557-70.587 32.645-70.587 73.389v53.806h141.175v17.934H98.248c-41.028 0-76.959 24.663-88.195 71.578-12.963 53.775-13.537 87.33 0 143.48 10.036 41.797 34.004 71.578 75.031 71.578h48.542v-64.5c0-46.6 40.317-87.7 88.195-87.7h141.011c39.253 0 70.588-32.32 70.588-71.741V80.036c0-38.259-32.277-67.002-70.588-73.39C338.575 2.614 313.417.777 289.28.893Zm-76.347 43.27c14.585 0 26.49 12.106 26.49 26.985 0 14.828-11.91 26.822-26.49 26.822-14.633 0-26.49-11.989-26.49-26.822 0-14.88 11.857-26.985 26.49-26.985Z" transform="translate(.327 .796)"/><path fill="url(#b)" d="M451.027 151.776v62.69c0 48.604-41.207 89.51-88.195 89.51H221.821c-38.627 0-70.588 33.057-70.588 71.741v134.43c0 38.264 33.267 60.768 70.588 71.74 44.687 13.143 87.541 15.518 141.011 0 35.541-10.288 70.588-31.002 70.588-71.74v-53.801H292.408v-17.934h211.6c41.032 0 56.317-28.623 70.587-71.578 14.743-44.218 14.116-86.752 0-143.48-10.141-40.844-29.507-71.578-70.588-71.578h-52.98Zm-79.312 340.437c14.632 0 26.49 11.99 26.49 26.822 0 14.88-11.858 26.985-26.49 26.985-14.585 0-26.49-12.105-26.49-26.985 0-14.827 11.91-26.822 26.49-26.822Z" transform="translate(.327 .796)"/></g></svg>
